image/innerpage/github.svg

<svg fill="none" height="48" viewBox="0 0 48 48" width="48" xmlns="http://www.w3.org/2000/svg"><g fill="#161614"><path d="m23.9092 1.09082c-12.9018 0-23.36379 10.50258-23.36379 23.45858 0 10.3648 6.69444 19.158 15.97769 22.2599 1.1676.2171 1.5964-.5089 1.5964-1.1285 0-.5593-.0218-2.4074-.0317-4.3676-6.5001 1.4191-7.8716-2.7678-7.8716-2.7678-1.06279-2.7115-2.59411-3.4323-2.59411-3.4323-2.11971-1.4561.15978-1.4263.15978-1.4263 2.34623.1656 3.58163 2.4176 3.58163 2.4176 2.0837 3.5863 5.4656 2.5494 6.7988 1.9502.2097-1.5164.8153-2.5511 1.4834-3.1369-5.1894-.5934-10.64474-2.6048-10.64474-11.5934 0-2.5611.91271-4.6539 2.40734-6.2966-.2426-.591-1.0422-2.9769.2263-6.2081 0 0 1.962-.6305 6.4268 2.4046 1.8635-.5199 3.8623-.7804 5.8478-.7893 1.9856.0089 3.9859.2694 5.8531.7893 4.4594-3.0351 6.4186-2.4046 6.4186-2.4046 1.2717 3.2312.4717 5.6171.2291 6.2081 1.4979 1.6427 2.4044 3.7354 2.4044 6.2966 0 9.0099-5.4656 10.994-10.6681 11.5746.8379.728 1.5846 2.1557 1.5846 4.3442 0 3.1387-.0271 5.665-.0271 6.4377 0 .6242.4205 1.3557 1.605 1.1254 9.2781-3.1054 15.9641-11.8955 15.9641-22.2568 0-12.956-10.4605-23.45858-23.3637-23.45858z"/><path d="m8.95404 35.0085c-.0525.122-.23962.1587-.40968.075-.17344-.0802-.27094-.2467-.21469-.3693.05156-.1257.23869-.1607.41175-.0763.17381.08.27281.2481.21262.3706zm1.17596 1.0786c-.114.1087-.33689.0582-.4882-.1135-.15638-.1714-.18563-.4003-.06994-.5108.11756-.1085.33375-.0578.49054.1137.1563.1733.1867.401.0675.5108zm.8069 1.3801c-.1467.1046-.3863.0065-.5342-.2121-.1465-.2183-.1465-.4805.0032-.5855.1485-.1051.3843-.0106.5343.2062.1463.2223.1463.4844-.0035.5916zm1.3642 1.5984c-.131.1484-.4101.1087-.6144-.0941-.2089-.1981-.2672-.4793-.1358-.6279.1326-.1488.4133-.107.6191.094.2076.1978.271.4811.1313.628zm1.7633.5397c-.0576.1923-.3265.2798-.5972.1981-.2704-.0842-.4474-.3097-.3928-.5042.0562-.1937.3262-.2849.599-.1974.27.0839.4474.3076.3912.5035zm2.007.2287c.0067.2028-.223.3709-.5072.3745-.286.0064-.5171-.1576-.5201-.3569 0-.2047.2244-.3712.5101-.3761.2843-.0057.5172.1571.5172.3585zm1.9713-.0776c.0342.1977-.1635.4009-.4456.4548-.2775.0521-.5344-.0699-.5699-.266-.0345-.2027.1669-.4057.4439-.4583.2827-.0505.5356.0684.5716.2695z"/></g></svg>

<svg width="48" height="48" viewBox="0 0 48 48" fill="none" xmlns="http://www.w3.org/2000/svg">
<path d="M23.9092 1.09082C11.0074 1.09082 0.54541 11.5934 0.54541 24.5494C0.54541 34.9142 7.23985 43.7074 16.5231 46.8093C17.6907 47.0264 18.1195 46.3004 18.1195 45.6808C18.1195 45.1215 18.0977 43.2734 18.0878 41.3132C11.5877 42.7323 10.2162 38.5454 10.2162 38.5454C9.15341 35.8339 7.62209 35.1131 7.62209 35.1131C5.50238 33.657 7.78187 33.6868 7.78187 33.6868C10.1281 33.8524 11.3635 36.1044 11.3635 36.1044C13.4472 39.6907 16.8291 38.6538 18.1623 38.0546C18.372 36.5382 18.9776 35.5035 19.6457 34.9177C14.4563 34.3243 9.00096 32.3129 9.00096 23.3243C9.00096 20.7632 9.91367 18.6704 11.4083 17.0277C11.1657 16.4367 10.3661 14.0508 11.6346 10.8196C11.6346 10.8196 13.5966 10.1891 18.0614 13.2242C19.9249 12.7043 21.9237 12.4438 23.9092 12.4349C25.8948 12.4438 27.8951 12.7043 29.7623 13.2242C34.2217 10.1891 36.1809 10.8196 36.1809 10.8196C37.4526 14.0508 36.6526 16.4367 36.41 17.0277C37.9079 18.6704 38.8144 20.7631 38.8144 23.3243C38.8144 32.3342 33.3488 34.3183 28.1463 34.8989C28.9842 35.6269 29.7309 37.0546 29.7309 39.2431C29.7309 42.3818 29.7038 44.9081 29.7038 45.6808C29.7038 46.305 30.1243 47.0365 31.3088 46.8062C40.5869 43.7008 47.2729 34.9107 47.2729 24.5494C47.2729 11.5934 36.8124 1.09082 23.9092 1.09082Z" fill="#161614"/>
<path d="M8.95404 35.0085C8.90154 35.1305 8.71442 35.1672 8.54436 35.0835C8.37092 35.0033 8.27342 34.8368 8.32967 34.7142C8.38123 34.5885 8.56836 34.5535 8.74142 34.6379C8.91523 34.7179 9.01423 34.886 8.95404 35.0085ZM10.13 36.0871C10.016 36.1958 9.79311 36.1453 9.6418 35.9736C9.48542 35.8022 9.45617 35.5733 9.57186 35.4628C9.68942 35.3543 9.90561 35.405 10.0624 35.5765C10.2187 35.7498 10.2491 35.9775 10.1299 36.0873L10.13 36.0871ZM10.9369 37.4672C10.7902 37.5718 10.5506 37.4737 10.4027 37.2551C10.2562 37.0368 10.2562 36.7746 10.4059 36.6696C10.5544 36.5645 10.7902 36.659 10.9402 36.8758C11.0865 37.0981 11.0865 37.3602 10.9367 37.4674L10.9369 37.4672ZM12.3011 39.0656C12.1701 39.214 11.891 39.1743 11.6867 38.9715C11.4778 38.7734 11.4195 38.4922 11.5509 38.3436C11.6835 38.1948 11.9642 38.2366 12.17 38.4376C12.3776 38.6354 12.441 38.9187 12.3013 39.0656H12.3011ZM14.0644 39.6053C14.0068 39.7976 13.7379 39.8851 13.4672 39.8034C13.1968 39.7192 13.0198 39.4937 13.0744 39.2992C13.1306 39.1055 13.4006 39.0143 13.6734 39.1018C13.9434 39.1857 14.1208 39.4094 14.0646 39.6053H14.0644ZM16.0714 39.834C16.0781 40.0368 15.8484 40.2049 15.5642 40.2085C15.2782 40.2149 15.0471 40.0509 15.0441 39.8516C15.0441 39.6469 15.2685 39.4804 15.5542 39.4755C15.8385 39.4698 16.0714 39.6326 16.0714 39.834ZM18.0427 39.7564C18.0769 39.9541 17.8792 40.1573 17.5971 40.2112C17.3196 40.2633 17.0627 40.1413 17.0272 39.9452C16.9927 39.7425 17.1941 39.5395 17.4711 39.4869C17.7538 39.4364 18.0067 39.5553 18.0427 39.7564Z" fill="#161614"/>
</svg>
